X:1
T: Old Rolling Cork
C:
R:Jig
Q:180
K:D
M:6/8
L:1/16
A2|d2f2d2 B4d2|A2F2A2 A4B2|A4B2 d4e2|f4a2 g2f2e2|d2f2d2 B4d2|A2F2A2 A4B2|A4g2 f2g2e2|d6d4A2|
d2f2d2 B4d2|A2F2A2 A4B2|A4B2 d4e2|f4a2 g2f2e2|d2f2d2 B4d2|A2F2A2 A4B2|A4g2 f2g2e2|d6d4A2|
d4f2 a4f2|b4g2 a4f2|d4f2 a4f2|g4e2 b2a2f2|d4f2 a2g2f2|g2a2b2 a4g2|f2d2B2 A2d2f2|e4f2 g2f2e2|
d4f2 a4f2|b4g2 a4f2|d4f2 a4f2|g4e2 b2a2f2|d4f2 a2g2f2|g2a2b2 a4g2|f2d2B2 A2d2f2|e6d4||
